svg/fluentui-system-icons/ic_fluent_classification_20_filled.svg

<svg width="20" height="20" viewBox="0 0 20 20" fill="none" xmlns="http://www.w3.org/2000/svg">
<path d="M10.5651 16.477C10.1746 16.8676 9.54144 16.8676 9.15092 16.477L3.49407 10.8202C3.10354 10.4297 3.10354 9.7965 3.49407 9.40598L4.90817 7.99077L4.82509 7.89756C4.52007 7.50527 4.54779 6.93804 4.90828 6.57755L6.67605 4.80979C7.65236 3.83347 9.23527 3.83347 10.2116 4.80979L11.5242 6.12277L12.9635 3.70506C13.6533 2.54491 15.153 2.16361 16.3131 2.85341C16.4877 2.9572 16.6486 3.08234 16.7922 3.22595C17.739 4.17268 17.739 5.70764 16.7922 6.65437C16.6442 6.80246 16.4775 6.93074 16.2964 7.036L13.8562 8.45377L15.1613 9.75953C16.1376 10.7358 16.1376 12.3188 15.1613 13.2951L13.3936 15.0628C13.003 15.4534 12.3699 15.4534 11.9793 15.0628L10.5651 16.477ZM5.61539 8.69887L4.20117 10.1131L9.85803 15.7699L11.2722 14.3558L5.61539 8.69887ZM13.823 4.21613L12.2552 6.85277L13.1252 7.72277L15.7939 6.17147C15.9002 6.10963 15.9981 6.03427 16.0851 5.94726C16.6414 5.39106 16.6414 4.48926 16.0851 3.93305C16.0003 3.84821 15.9052 3.77427 15.8021 3.71295C15.1166 3.3054 14.2306 3.53068 13.823 4.21613Z" fill="#212121"/>
</svg>

<svg xmlns="http://www.w3.org/2000/svg" width="20" height="20"><path d="M10.565 16.477a1 1 0 0 1-1.414 0L3.494 10.82a1 1 0 0 1 0-1.414l1.414-1.415-.083-.093a1 1 0 0 1 .083-1.32L6.676 4.81a2.5 2.5 0 0 1 3.536 0l1.312 1.313 1.44-2.418a2.444 2.444 0 0 1 3.828-.479 2.424 2.424 0 0 1-.496 3.81l-2.44 1.418 1.305 1.306a2.5 2.5 0 0 1 0 3.535l-1.767 1.768a1 1 0 0 1-1.415 0l-1.414 1.414Zm-4.95-7.778-1.414 1.414 5.657 5.657 1.414-1.414-5.657-5.657Zm8.208-4.483-1.568 2.637.87.87 2.669-1.552a1.425 1.425 0 0 0 .008-2.458 1.444 1.444 0 0 0-1.979.503Z"/></svg>
